build/img/cog.svg

<svg width="24" height="24" viewBox="0 0 24 24" fill="none" xmlns="http://www.w3.org/2000/svg">
<path d="M21.14 10.34L19.72 9.92C19.5412 9.2484 19.2756 8.60297 18.93 8L19.64 6.7C19.6704 6.6365 19.6809 6.56532 19.6702 6.49574C19.6595 6.42617 19.6281 6.36144 19.58 6.31L17.67 4.41C17.6217 4.36015 17.5586 4.32735 17.49 4.31652C17.4215 4.3057 17.3513 4.31745 17.29 4.35L16 5.07C15.4002 4.72519 14.7582 4.45964 14.09 4.28L13.67 2.86C13.65 2.79146 13.6076 2.73158 13.5496 2.6899C13.4916 2.64822 13.4214 2.62714 13.35 2.63H10.65C10.5803 2.62937 10.5124 2.65149 10.4564 2.693C10.4005 2.73451 10.3596 2.79315 10.34 2.86L9.92 4.28C9.2484 4.45882 8.60297 4.72439 8 5.07L6.7 4.36C6.6365 4.32963 6.56532 4.3191 6.49574 4.3298C6.42617 4.34051 6.36144 4.37194 6.31 4.42L4.42 6.33C4.37015 6.37827 4.33735 6.44144 4.32652 6.50998C4.3157 6.57852 4.32745 6.64872 4.36 6.71L5.07 8C4.7295 8.60194 4.46418 9.24341 4.28 9.91L2.86 10.33C2.79146 10.35 2.73158 10.3924 2.6899 10.4504C2.64822 10.5084 2.62714 10.5786 2.63 10.65V13.34C2.62937 13.4097 2.65149 13.4776 2.693 13.5336C2.73451 13.5895 2.79315 13.6304 2.86 13.65L4.28 14.07C4.458 14.745 4.72359 15.3939 5.07 16L4.36 17.3C4.32963 17.3635 4.3191 17.4347 4.3298 17.5043C4.34051 17.5738 4.37194 17.6386 4.42 17.69L6.33 19.59C6.37827 19.6399 6.44144 19.6727 6.50998 19.6835C6.57852 19.6943 6.64872 19.6826 6.71 19.65L8 18.93C8.60194 19.2705 9.24341 19.5358 9.91 19.72L10.33 21.14C10.35 21.2085 10.3924 21.2684 10.4504 21.3101C10.5084 21.3518 10.5786 21.3729 10.65 21.37H13.34C13.4097 21.3706 13.4776 21.3485 13.5336 21.307C13.5895 21.2655 13.6304 21.2069 13.65 21.14L14.07 19.72C14.745 19.542 15.3939 19.2764 16 18.93L17.3 19.64C17.3635 19.6704 17.4347 19.6809 17.5043 19.6702C17.5738 19.6595 17.6386 19.6281 17.69 19.58L19.59 17.67C19.6399 17.6217 19.6727 17.5586 19.6835 17.49C19.6943 17.4215 19.6826 17.3513 19.65 17.29L18.93 16C19.2705 15.3981 19.5358 14.7566 19.72 14.09L21.14 13.67C21.2085 13.65 21.2684 13.6076 21.3101 13.5496C21.3518 13.4916 21.3729 13.4214 21.37 13.35V10.65C21.3706 10.5803 21.3485 10.5124 21.307 10.4564C21.2655 10.4005 21.2069 10.3596 21.14 10.34Z" stroke="#94A0B1" stroke-width="1.5" stroke-miterlimit="10"/>
<path d="M12 15.36C13.8557 15.36 15.36 13.8557 15.36 12C15.36 10.1443 13.8557 8.64 12 8.64C10.1443 8.64 8.64 10.1443 8.64 12C8.64 13.8557 10.1443 15.36 12 15.36Z" stroke="#94A0B1" stroke-width="1.5" stroke-miterlimit="10"/>
</svg>

<svg width="24" height="24" viewBox="0 0 24 24" fill="none" xmlns="http://www.w3.org/2000/svg"><path d="M21.14 10.34l-1.42-.42A8 8 0 0018.93 8l.71-1.3a.35.35 0 00-.06-.39l-1.91-1.9a.32.32 0 00-.38-.06L16 5.07a8 8 0 00-1.91-.79l-.42-1.42a.32.32 0 00-.32-.23h-2.7a.32.32 0 00-.31.23l-.42 1.42A8 8 0 008 5.07l-1.3-.71a.35.35 0 00-.39.06L4.42 6.33a.32.32 0 00-.06.38L5.07 8a8.45 8.45 0 00-.79 1.91l-1.42.42a.32.32 0 00-.23.32v2.69a.32.32 0 00.23.31l1.42.42c.178.675.444 1.324.79 1.93l-.71 1.3a.35.35 0 00.06.39l1.91 1.9a.32.32 0 00.38.06L8 18.93c.602.34 1.243.606 1.91.79l.42 1.42a.32.32 0 00.32.23h2.69a.32.32 0 00.31-.23l.42-1.42a8.002 8.002 0 001.93-.79l1.3.71a.35.35 0 00.39-.06l1.9-1.91a.32.32 0 00.06-.38L18.93 16a8.45 8.45 0 00.79-1.91l1.42-.42a.32.32 0 00.23-.32v-2.7a.32.32 0 00-.23-.31z" stroke="#94A0B1" stroke-width="1.5" stroke-miterlimit="10"/><path d="M12 15.36a3.36 3.36 0 100-6.72 3.36 3.36 0 000 6.72z" stroke="#94A0B1" stroke-width="1.5" stroke-miterlimit="10"/></svg>
